X:3
T:Ronde des lavandires
A:Ile-de-France
Z:Transcrit et/ou corrig par Michel BELLON - 2007-04-23
Z:Pour toute observation mailto:galouvielle@free.fr
M:6/8
L:1/8
K:G
%%continueall 1
d | G2A B2c | d3 d3 | ABc B2A | G3- G2d |
G2A B2c | d3 d2d | e2e d2c | d3 d2B |
d2c B2c | A6 | ABc B2A | B3  G2D | 
G2A B2c | d6 | ABc B2A | G6 |]
%%footer $D   Galouvielle-MBe 2007 \n--- (--)
